trunk/WorldWind/resources/milstd2525/icons/ems/eufabe---------.svg

<?xml version="1.0" encoding="UTF-8" standalone="no"?>
<!--
Copyright (C) 2012 United States Government as represented by the Administrator of the
National Aeronautics and Space Administration.
All Rights Reserved.
-->

<!--
MIL-STD-2525 tactical symbol icon image. During icon composition this image is multiplied by the desired frame color 
(e.g. black), then drawn on top of the frame and fill.
-->

<svg
   xmlns:dc="http://purl.org/dc/elements/1.1/"
   xmlns:cc="http://creativecommons.org/ns#"
   xmlns:rdf="http://www.w3.org/1999/02/22-rdf-syntax-ns#"
   xmlns:svg="http://www.w3.org/2000/svg"
   xmlns="http://www.w3.org/2000/svg"
   xmlns:sodipodi="http://sodipodi.sourceforge.net/DTD/sodipodi-0.dtd"
   xmlns:inkscape="http://www.inkscape.org/namespaces/inkscape"
   height="400px"
   viewBox="0 0 400 400"
   width="400px"
   id="svg2"
   version="1.1"
   inkscape:version="0.48.2 r9819"
   sodipodi:docname="eufabe---------.svg">
  <metadata
     id="metadata16">
    <rdf:RDF>
      <cc:Work
         rdf:about="">
        <dc:format>image/svg+xml</dc:format>
        <dc:type
           rdf:resource="http://purl.org/dc/dcmitype/StillImage" />
      </cc:Work>
    </rdf:RDF>
  </metadata>
  <defs
     id="defs14" />
  <sodipodi:namedview
     pagecolor="#ffffff"
     bordercolor="#666666"
     borderopacity="1"
     objecttolerance="10"
     gridtolerance="10"
     guidetolerance="10"
     inkscape:pageopacity="0"
     inkscape:pageshadow="2"
     inkscape:window-width="640"
     inkscape:window-height="480"
     id="namedview12"
     showgrid="false"
     inkscape:zoom="0.59"
     inkscape:cx="200"
     inkscape:cy="200"
     inkscape:window-x="195"
     inkscape:window-y="129"
     inkscape:window-maximized="0"
     inkscape:current-layer="svg2" />
  <g
     transform="matrix(100,0,0,100,75,75)"
     id="g4"
     style="fill:#ffffff;fill-opacity:1;stroke:#ffffff;stroke-width:0.06;stroke-miterlimit:4;stroke-opacity:1;stroke-dasharray:0.12, 0.06;stroke-dashoffset:0">
    <path
       inkscape:connector-curvature="0"
       d="m 1.42396,1.14687 0,-0.184169 C 1.47683,0.963882 1.52584,0.998744 1.52584,1.05283 l 0,0.00391 c 0,0.05375 -0.04677,0.09013 -0.10188,0.09013 z M 1.3064,0.805964 c 0,-0.050673 0.02546,-0.086205 0.07445,-0.086205 l 0.01176,0 0,0.164575 C 1.34848,0.88335 1.30641,0.851917 1.3064,0.805964 z m 0.08621,-0.141063 -0.02351,0 c -0.06538,0 -0.12931,0.072154 -0.12931,0.141063 l 0,0.023508 c 0,0.028039 0.03306,0.070366 0.0532,0.083949 0.02843,0.019181 0.06249,0.028874 0.09962,0.037523 l 0,0.195926 C 1.32904,1.13206 1.29073,1.10611 1.29073,1.02931 l -0.05958,8e-5 0.00472,0.06262 c 0.02287,0.03415 0.01435,0.05289 0.05407,0.07917 0.02674,0.01769 0.0598,0.03055 0.10267,0.03055 l 0,0.07053 0.03135,0 0,-0.07053 c 0.07642,0 0.16066,-0.05722 0.16066,-0.12539 l 0,-0.0627 c 0,-0.072145 -0.09989,-0.107314 -0.16066,-0.121471 l 0,-0.172409 c 0.04896,0 0.08512,0.033547 0.0862,0.082287 l 0.06662,0 c 0,-0.080897 -0.06956,-0.137146 -0.15282,-0.137146 l 0,-0.047023 -0.03135,0 z"
       style="fill:#ffffff;fill-opacity:1;stroke:#ffffff;stroke-width:0.06;stroke-miterlimit:4;stroke-opacity:1;stroke-dasharray:0.12, 0.06;stroke-dashoffset:0"
       id="path6" />
    <path
       inkscape:connector-curvature="0"
       d="M 1.35341,1.63275 1.10879,1.11252 0.960288,1.47313 0.828249,1.31134 0.494836,1.62138 l 0.022067,0.02526 -3.9e-5,0.00395 0.310453,-0.28347 0.138169,0.17551 0.007838,0 C 0.973895,1.517 1.03008,1.40372 1.04162,1.36798 1.04995,1.34215 1.06911,1.30703 1.07866,1.28355 1.08627,1.26483 1.10167,1.20616 1.11619,1.2027 L 1.35196,1.70998 1.3538,1.71385 1.78796,1.03049 1.79185,1.03345 1.99285,1.42291 2.02692,1.40964 1.79228,0.958779 C 1.78891,0.971389 1.59943,1.26203 1.5752,1.29812 1.54868,1.33763 1.36999,1.62833 1.35341,1.63275 z"
       style="fill:#ffffff;fill-opacity:1;stroke:#ffffff;stroke-width:0.06;stroke-miterlimit:4;stroke-opacity:1;stroke-dasharray:0.12, 0.06;stroke-dashoffset:0"
       id="path8" />
    <polygon
       points="0.428665,0.637469 0.405154,0.637469 0.405154,1.84827 2.09009,1.84827 2.09009,1.813 0.420831,1.813 0.428665,1.813 "
       style="fill:#ffffff;fill-opacity:1;stroke:#ffffff;stroke-width:0.06;stroke-miterlimit:4;stroke-opacity:1;stroke-dasharray:0.12, 0.06;stroke-dashoffset:0"
       id="polygon10" />
  </g>
</svg>

<?xml version="1.0"?>
<!--
Copyright (C) 2012 United States Government as represented by the Administrator of the
National Aeronautics and Space Administration.
All Rights Reserved.
-->

<!DOCTYPE svg PUBLIC "-//W3C//DTD SVG 1.1//EN" "http://www.w3.org/Graphics/SVG/1.1/DTD/svg11.dtd" >
<!--
MIL-STD-2525 tactical symbol icon image. During icon composition this image is multiplied by the desired frame color 
(e.g. black), then drawn on top of the frame and fill.
-->
<svg xmlns:xlink="http://www.w3.org/1999/xlink" height="400px" viewBox="0 0 400 400" width="400px"><g transform="scale(100) translate(0.75 0.75)"><path d="M1.42396 1.14687 L1.42396 0.962701 C1.47683 0.963882 1.52584 0.998744 1.52584 1.05283     L1.52584 1.05674 C1.52584 1.11049 1.47907 1.14687 1.42396 1.14687 zM1.3064     0.805964 C1.3064 0.755291 1.33186 0.719759 1.38085 0.719759 L1.39261 0.719759     L1.39261 0.884334 C1.34848 0.88335 1.30641 0.851917 1.3064 0.805964 zM1.39261     0.664901 L1.3691 0.664901 C1.30372 0.664901 1.23979 0.737055 1.23979     0.805964 L1.23979 0.829472 C1.23979 0.857511 1.27285 0.899838 1.29299 0.913421     C1.32142 0.932602 1.35548 0.942295 1.39261 0.950944 L1.39261 1.14687 C1.32904     1.13206 1.29073 1.10611 1.29073 1.02931 L1.23115 1.02939 L1.23587 1.09201     C1.25874 1.12616 1.25022 1.1449 1.28994 1.17118 C1.31668 1.18887 1.34974     1.20173 1.39261 1.20173 L1.39261 1.27226 L1.42396 1.27226 L1.42396 1.20173     C1.50038 1.20173 1.58462 1.14451 1.58462 1.07634 L1.58462 1.01364 C1.58462 0.941495     1.48473 0.906326 1.42396 0.892169 L1.42396 0.71976 C1.47292 0.71976     1.50908 0.753307 1.51016 0.802047 L1.57678 0.802047 C1.57678 0.72115 1.50722     0.664901 1.42396 0.664901 L1.42396 0.617878 L1.39261 0.617878 z" style="fill:rgb(255,255,255)"/><path d="M1.35341 1.63275 L1.10879 1.11252 L0.960288 1.47313 L0.828249 1.31134 L0.494836 1.62138     L0.516903 1.64664 L0.516864 1.65059 L0.827317 1.36712 L0.965486 1.54263     L0.973324 1.54263 C0.973895 1.517 1.03008 1.40372 1.04162 1.36798 C1.04995     1.34215 1.06911 1.30703 1.07866 1.28355 C1.08627 1.26483 1.10167 1.20616 1.11619     1.2027 L1.35196 1.70998 L1.3538 1.71385 L1.78796 1.03049 L1.79185 1.03345     L1.99285 1.42291 L2.02692 1.40964 L1.79228 0.958779 C1.78891 0.971389 1.59943     1.26203 1.5752 1.29812 C1.54868 1.33763 1.36999 1.62833 1.35341 1.63275 z" style="fill:rgb(255,255,255)"/><polygon points="0.405154,1.84827 2.09009,1.84827 2.09009,1.813 0.420831,1.813 0.428665,1.813 0.428665,0.637469     0.405154,0.637469" style="fill:rgb(255,255,255)"/></g></svg>
